Adwaita++-Dark/actions/16/cm_markinvert.svg

<svg height="16" viewBox="0 0 16 16" width="16" xmlns="http://www.w3.org/2000/svg">
  <path d="m2 2v12h4 1 2 1 4v-12zm2 2h8v2h-8zm3 3h2v1h-2zm0 2h2v4h-2z" fill="#e6ddff"/>
</svg>

<svg xmlns="http://www.w3.org/2000/svg" width="16" height="16" version="1.1" viewBox="0 0 16 16">
 <defs>
  <style id="current-color-scheme" type="text/css">
   .ColorScheme-Text { color:#E6DDFF; } .ColorScheme-Highlight { color:#4285f4; }
  </style>
 </defs>
 <path style="fill:currentColor" class="ColorScheme-Text" d="m 2,2 v 12 h 4 1 2 1 4 V 2 Z m 2,2 h 8 V 6 H 4 Z M 7,7 H 9 V 8 H 7 Z m 0,2 h 2 v 4 H 7 Z"/>
</svg>
